src/assets/icons/facebook.svg

<svg height="20" width="20" class="css-1jvxqtq-FacebookLogo"><path d="M19.998 10c0-5.523-4.476-10-9.999-10C4.477 0 0 4.477 0 10c0 4.99 3.657 9.127 8.437 9.877V12.89H5.898V10h2.539V7.795c0-2.506 1.493-3.89 3.777-3.89 1.094 0 2.238.195 2.238.195v2.461h-1.26c-1.243 0-1.63.77-1.63 1.562v1.875h2.773l-.444 2.89h-2.33v6.988c4.78-.75 8.437-4.887 8.437-9.878Z"/></svg>

<svg width="20" height="20" viewBox="0 0 20 20" fill="none" xmlns="http://www.w3.org/2000/svg">
<path d="M19.998 10C19.998 4.477 15.522 0 9.999 0C4.477 0 0 4.477 0 10C0 14.99 3.657 19.127 8.437 19.877V12.89H5.898V10H8.437V7.795C8.437 5.289 9.93 3.905 12.214 3.905C13.308 3.905 14.452 4.1 14.452 4.1V6.561H13.192C11.949 6.561 11.562 7.331 11.562 8.123V9.998H14.335L13.891 12.888H11.561V19.876C16.341 19.126 19.998 14.989 19.998 9.998V10Z" fill="white"/>
</svg>
